X:1
T:Title
%%score 1 { 2 | 3 }
L:1/8
Q:1/4=83
M:3/4
K:Bb
V:1 treble nm="Grand Piano, Soprano"
V:2 bass nm="Choir Pad, O Lovely Star"
V:3 bass 
V:1
 [DF][DB] [EA] [FB]3 | [EG][DF] [CE] [B,D]3 | [DF][EG] [EG] [Ee]3 | [Fd][Gc] [GB] [Fc]3 | %4
w: By~Aaron~Coons,~1875 * * *||||
 [EF][DB] [DB] [Fd]3 | [Ec][DB] [FB] [Ge]3 | [Gc][Ff] [Fe] [Fd]3 | [Gc][FB] [EA] [DB]3 | %8
w: ||||
 .[Fd]2 z [DB] z/ [DA]/[DB] | [EG][CF] [C=E] [CF]3 | [FA][Fc] [Fe] [Fd]3 | [FB][FB] [Fd] [Fc]3 | %12
w: ||||
 [EF][DB] [DB] [Fd]3 | [^Fc][GB] [GB] [Ge]3 | [Ac][Ff] [Fe] [Fd]3 | [Gc][FB] [EA] [DB]3- | %16
w: ||||
 [DB]4 z2 |] %17
w: |
V:2
 B,F, F,F, B,2 | B,B, F, F,3 | B,B, B, C3 | B,B, C A,3 | A,B, F, B,3 | B,B,[K:treble] D C3 | %6
 CB, C B,3 | ED C[K:bass] B,3 | .B,2 z F, z/ F,/F, | B,A, G, A,3 | CA, A, B,3 | DD B, A,3 | %12
 A,B, F, B,3 | A,G, B,[K:treble] C3 | CD C B,3 | ED C B,3- | B,4 z2 |] %17
V:3
 B,,B,, C, D,3 | E,F, z B,,3 | B,,E, E, C,3 | D,E, =E, F,3 | F,B,, B,, B,,3 | .B,,2 B, E,3 | %6
 E,D, .F,2 z2 | E,F, F, B,,3 | .B,,2 z B,, z/ B,,/B,, | B,,C, C, F,3 | F,F, F, B,,3 | %11
 B,,B,, B,, F,3 | F,B,, B,, B,,3 | D,E, E, C,3 | F,D, .F,2 z2 | E,F, F, B,,3- | B,,4 z2 |] %17

